documentation/public/assets/images/notification-badge.svg

<svg width="24" height="24" viewBox="0 0 24 24" fill="none" xmlns="http://www.w3.org/2000/svg">
<rect width="24" height="24" rx="12" fill="#0F67F5"/>
<path d="M12.0373 17.6392C11.381 17.6392 10.796 17.5265 10.2823 17.3011C9.7719 17.0758 9.36589 16.7625 9.06428 16.3615C8.76598 15.9571 8.60357 15.4882 8.57706 14.9545H9.8299C9.85642 15.2827 9.96911 15.5661 10.168 15.8047C10.3668 16.04 10.627 16.2223 10.9485 16.3516C11.27 16.4808 11.6263 16.5455 12.0174 16.5455C12.4549 16.5455 12.8427 16.4692 13.1808 16.3168C13.5188 16.1643 13.784 15.9522 13.9762 15.6804C14.1684 15.4086 14.2646 15.0938 14.2646 14.7358C14.2646 14.3613 14.1718 14.0315 13.9862 13.7464C13.8005 13.4581 13.5288 13.2327 13.1708 13.0703C12.8129 12.9079 12.3754 12.8267 11.8583 12.8267H11.043V11.733H11.8583C12.2627 11.733 12.6173 11.66 12.9222 11.5142C13.2305 11.3684 13.4708 11.1629 13.6431 10.8977C13.8188 10.6326 13.9066 10.321 13.9066 9.96307C13.9066 9.61837 13.8304 9.31842 13.6779 9.06321C13.5254 8.808 13.31 8.60914 13.0316 8.46662C12.7565 8.3241 12.4317 8.25284 12.0572 8.25284C11.7058 8.25284 11.3744 8.31747 11.0629 8.44673C10.7546 8.57268 10.5027 8.75663 10.3072 8.99858C10.1116 9.23722 10.0056 9.52557 9.98899 9.86364H8.79581C8.8157 9.33002 8.97644 8.86269 9.27805 8.46165C9.57966 8.05729 9.97408 7.74242 10.4613 7.51705C10.9518 7.29167 11.4904 7.17898 12.0771 7.17898C12.7068 7.17898 13.247 7.30658 13.6978 7.56179C14.1486 7.81368 14.4949 8.14678 14.7369 8.56108C14.9788 8.97538 15.0998 9.42282 15.0998 9.90341C15.0998 10.4768 14.949 10.9657 14.6474 11.37C14.3491 11.7744 13.9431 12.0545 13.4293 12.2102V12.2898C14.0723 12.3958 14.5745 12.6693 14.9357 13.1101C15.297 13.5476 15.4776 14.0895 15.4776 14.7358C15.4776 15.2893 15.3268 15.7865 15.0252 16.2273C14.7269 16.6648 14.3192 17.0095 13.8022 17.2614C13.2852 17.5133 12.6969 17.6392 12.0373 17.6392Z" fill="white"/>
</svg>

<svg width="24" height="24" fill="none" xmlns="http://www.w3.org/2000/svg"><rect width="24" height="24" rx="12" fill="#0F67F5"/><path d="M12.04 17.64c-.66 0-1.24-.11-1.76-.34a3 3 0 0 1-1.22-.94c-.3-.4-.46-.87-.48-1.4h1.25c.03.32.14.6.34.84s.46.42.78.55c.32.13.68.2 1.07.2.43 0 .82-.08 1.16-.23.34-.16.6-.37.8-.64a1.87 1.87 0 0 0 .01-1.94 1.84 1.84 0 0 0-.82-.67c-.36-.16-.8-.24-1.31-.24h-.82v-1.1h.82c.4 0 .76-.07 1.06-.22a1.65 1.65 0 0 0 .98-1.55c0-.34-.07-.64-.22-.9a1.56 1.56 0 0 0-.65-.6 2.1 2.1 0 0 0-.97-.2c-.35 0-.69.06-1 .19-.3.12-.56.3-.75.55-.2.24-.3.53-.32.86h-1.2c.03-.53.19-1 .49-1.4.3-.4.7-.72 1.18-.94a3.82 3.82 0 0 1 3.24.04 2.7 2.7 0 0 1 1.4 2.34 2.3 2.3 0 0 1-1.67 2.3v.09c.64.1 1.14.38 1.5.82.37.44.55.98.55 1.63a2.6 2.6 0 0 1-.45 1.49c-.3.43-.71.78-1.23 1.03-.51.25-1.1.38-1.76.38Z" fill="#fff"/></svg>
